templates/flag_icons/tj.svg

<?xml version="1.0" encoding="UTF-8" standalone="no"?>
<svg width="23px" height="17px" viewBox="0 0 23 17" version="1.1" xmlns="http://www.w3.org/2000/svg" xmlns:xlink="http://www.w3.org/1999/xlink">
    <!-- Generator: Sketch 3.7.2 (28276) - http://www.bohemiancoding.com/sketch -->
    <title>TJ</title>
    <desc>Created with Sketch.</desc>
    <defs>
        <linearGradient x1="50%" y1="0%" x2="50%" y2="100%" id="linearGradient-1">
            <stop stop-color="#FFFFFF" offset="0%"></stop>
            <stop stop-color="#F0F0F0" offset="100%"></stop>
        </linearGradient>
        <rect id="path-2" x="0" y="0" width="21" height="15" rx="1.5"></rect>
        <filter x="-50%" y="-50%" width="200%" height="200%" filterUnits="objectBoundingBox" id="filter-4">
            <feOffset dx="0" dy="0.5" in="SourceAlpha" result="shadowOffsetOuter1"></feOffset>
            <feGaussianBlur stdDeviation="0.5" in="shadowOffsetOuter1" result="shadowBlurOuter1"></feGaussianBlur>
            <feColorMatrix values="0 0 0 0 0   0 0 0 0 0   0 0 0 0 0  0 0 0 0.16 0" type="matrix" in="shadowBlurOuter1"></feColorMatrix>
        </filter>
        <linearGradient x1="50%" y1="0%" x2="50%" y2="100%" id="linearGradient-5">
            <stop stop-color="#DA0F1C" offset="0%"></stop>
            <stop stop-color="#CA0814" offset="100%"></stop>
        </linearGradient>
        <rect id="path-6" x="0" y="0" width="21" height="5"></rect>
        <filter x="-50%" y="-50%" width="200%" height="200%" filterUnits="objectBoundingBox" id="filter-7">
            <feMorphology radius="0.25" operator="dilate" in="SourceAlpha" result="shadowSpreadOuter1"></feMorphology>
            <feOffset dx="0" dy="0" in="shadowSpreadOuter1" result="shadowOffsetOuter1"></feOffset>
            <feColorMatrix values="0 0 0 0 0   0 0 0 0 0   0 0 0 0 0  0 0 0 0.06 0" type="matrix" in="shadowOffsetOuter1"></feColorMatrix>
        </filter>
        <linearGradient x1="50%" y1="0%" x2="50%" y2="100%" id="linearGradient-8">
            <stop stop-color="#0E7811" offset="0%"></stop>
            <stop stop-color="#0A650C" offset="100%"></stop>
        </linearGradient>
        <rect id="path-9" x="0" y="10" width="21" height="5"></rect>
        <filter x="-50%" y="-50%" width="200%" height="200%" filterUnits="objectBoundingBox" id="filter-10">
            <feMorphology radius="0.25" operator="dilate" in="SourceAlpha" result="shadowSpreadOuter1"></feMorphology>
            <feOffset dx="0" dy="0" in="shadowSpreadOuter1" result="shadowOffsetOuter1"></feOffset>
            <feColorMatrix values="0 0 0 0 0   0 0 0 0 0   0 0 0 0 0  0 0 0 0.06 0" type="matrix" in="shadowOffsetOuter1"></feColorMatrix>
        </filter>
        <rect id="path-11" x="0" y="5" width="21" height="5"></rect>
        <filter x="-50%" y="-50%" width="200%" height="200%" filterUnits="objectBoundingBox" id="filter-12">
            <feMorphology radius="0.25" operator="dilate" in="SourceAlpha" result="shadowSpreadOuter1"></feMorphology>
            <feOffset dx="0" dy="0" in="shadowSpreadOuter1" result="shadowOffsetOuter1"></feOffset>
            <feColorMatrix values="0 0 0 0 0   0 0 0 0 0   0 0 0 0 0  0 0 0 0.06 0" type="matrix" in="shadowOffsetOuter1"></feColorMatrix>
        </filter>
    </defs>
    <g id="Flag-Kit" stroke="none" stroke-width="1" fill="none" fill-rule="evenodd">
        <g id="TJ">
            <g id="AE-Copy-4" transform="translate(1.000000, 1.000000)">
                <mask id="mask-3" fill="white">
                    <use xlink:href="#path-2"></use>
                </mask>
                <g id="Mask">
                    <use fill="black" fill-opacity="1" filter="url(#filter-4)" xlink:href="#path-2"></use>
                    <use fill="url(#linearGradient-1)" fill-rule="evenodd" xlink:href="#path-2"></use>
                </g>
                <g id="Rectangle-2" mask="url(#mask-3)">
                    <use fill="black" fill-opacity="1" filter="url(#filter-7)" xlink:href="#path-6"></use>
                    <use fill="url(#linearGradient-5)" fill-rule="evenodd" xlink:href="#path-6"></use>
                </g>
                <g id="Rectangle-2" mask="url(#mask-3)">
                    <use fill="black" fill-opacity="1" filter="url(#filter-10)" xlink:href="#path-9"></use>
                    <use fill="url(#linearGradient-8)" fill-rule="evenodd" xlink:href="#path-9"></use>
                </g>
                <g id="Rectangle-2-Copy-4" mask="url(#mask-3)">
                    <use fill="black" fill-opacity="1" filter="url(#filter-12)" xlink:href="#path-11"></use>
                    <use fill="url(#linearGradient-1)" fill-rule="evenodd" xlink:href="#path-11"></use>
                </g>
                <path d="M10.9339916,8 C10.9759881,7.7825361 11,7.59044003 11,7.5 C11,7.22385763 10.7761424,7 10.5,7 C10.2238576,7 10,7.22385763 10,7.5 C10,7.59044003 10.0240119,7.7825361 10.0660084,8 L9.49538898,8 C9.2157526,8 9,8.22385763 9,8.5 C9,8.76806641 9.2217932,9 9.49538898,9 L11.504611,9 C11.7842474,9 12,8.77614237 12,8.5 C12,8.23193359 11.7782068,8 11.504611,8 L10.9339916,8 Z M9.5,7 C9.77614237,7 10,6.77614237 10,6.5 C10,6.22385763 9.77614237,6 9.5,6 C9.22385763,6 9,6.22385763 9,6.5 C9,6.77614237 9.22385763,7 9.5,7 Z M11.5,7 C11.7761424,7 12,6.77614237 12,6.5 C12,6.22385763 11.7761424,6 11.5,6 C11.2238576,6 11,6.22385763 11,6.5 C11,6.77614237 11.2238576,7 11.5,7 Z M13.5,8 C13.7761424,8 14,7.77614237 14,7.5 C14,7.22385763 13.7761424,7 13.5,7 C13.2238576,7 13,7.22385763 13,7.5 C13,7.77614237 13.2238576,8 13.5,8 Z M7.5,8 C7.77614237,8 8,7.77614237 8,7.5 C8,7.22385763 7.77614237,7 7.5,7 C7.22385763,7 7,7.22385763 7,7.5 C7,7.77614237 7.22385763,8 7.5,8 Z" id="Oval-36" fill="#FAD14E" mask="url(#mask-3)"></path>
                <rect id="Depth" mask="url(#mask-3)" x="0" y="0" width="21" height="15" rx="1.5"></rect>
            </g>
        </g>
    </g>
</svg>

<svg width="23" height="17" viewBox="0 0 23 17" xmlns="http://www.w3.org/2000/svg" xmlns:xlink="http://www.w3.org/1999/xlink"><title>TJ</title><defs><linearGradient x1="50%" y1="0%" x2="50%" y2="100%" id="c"><stop stop-color="#FFF" offset="0%"/><stop stop-color="#F0F0F0" offset="100%"/></linearGradient><rect id="a" width="21" height="15" rx="1.5"/><filter x="-50%" y="-50%" width="200%" height="200%" filterUnits="objectBoundingBox" id="b"><feOffset dy=".5" in="SourceAlpha" result="shadowOffsetOuter1"/><feGaussianBlur stdDeviation=".5" in="shadowOffsetOuter1" result="shadowBlurOuter1"/><feColorMatrix values="0 0 0 0 0 0 0 0 0 0 0 0 0 0 0 0 0 0 0.16 0" in="shadowBlurOuter1"/></filter><linearGradient x1="50%" y1="0%" x2="50%" y2="100%" id="g"><stop stop-color="#DA0F1C" offset="0%"/><stop stop-color="#CA0814" offset="100%"/></linearGradient><path id="f" d="M0 0h21v5H0z"/><filter x="-50%" y="-50%" width="200%" height="200%" filterUnits="objectBoundingBox" id="e"><feMorphology radius=".25" operator="dilate" in="SourceAlpha" result="shadowSpreadOuter1"/><feOffset in="shadowSpreadOuter1" result="shadowOffsetOuter1"/><feColorMatrix values="0 0 0 0 0 0 0 0 0 0 0 0 0 0 0 0 0 0 0.06 0" in="shadowOffsetOuter1"/></filter><linearGradient x1="50%" y1="0%" x2="50%" y2="100%" id="j"><stop stop-color="#0E7811" offset="0%"/><stop stop-color="#0A650C" offset="100%"/></linearGradient><path id="i" d="M0 10h21v5H0z"/><filter x="-50%" y="-50%" width="200%" height="200%" filterUnits="objectBoundingBox" id="h"><feMorphology radius=".25" operator="dilate" in="SourceAlpha" result="shadowSpreadOuter1"/><feOffset in="shadowSpreadOuter1" result="shadowOffsetOuter1"/><feColorMatrix values="0 0 0 0 0 0 0 0 0 0 0 0 0 0 0 0 0 0 0.06 0" in="shadowOffsetOuter1"/></filter><path id="l" d="M0 5h21v5H0z"/><filter x="-50%" y="-50%" width="200%" height="200%" filterUnits="objectBoundingBox" id="k"><feMorphology radius=".25" operator="dilate" in="SourceAlpha" result="shadowSpreadOuter1"/><feOffset in="shadowSpreadOuter1" result="shadowOffsetOuter1"/><feColorMatrix values="0 0 0 0 0 0 0 0 0 0 0 0 0 0 0 0 0 0 0.06 0" in="shadowOffsetOuter1"/></filter></defs><g transform="translate(1 1)" fill="none" fill-rule="evenodd"><mask id="d" fill="#fff"><use xlink:href="#a"/></mask><use fill="#000" filter="url(#b)" xlink:href="#a"/><use fill="url(#c)" xlink:href="#a"/><g mask="url(#d)"><use fill="#000" filter="url(#e)" xlink:href="#f"/><use fill="url(#g)" xlink:href="#f"/></g><g mask="url(#d)"><use fill="#000" filter="url(#h)" xlink:href="#i"/><use fill="url(#j)" xlink:href="#i"/></g><g mask="url(#d)"><use fill="#000" filter="url(#k)" xlink:href="#l"/><use fill="url(#c)" xlink:href="#l"/></g><path d="M10.93 8c.05-.22.07-.41.07-.5a.5.5 0 1 0-1 0c0 .09.02.28.07.5H9.5a.5.5 0 0 0-.5.5c0 .27.22.5.5.5h2a.5.5 0 0 0 .5-.5.5.5 0 0 0-.5-.5h-.57zM9.5 7a.5.5 0 1 0 0-1 .5.5 0 0 0 0 1zm2 0a.5.5 0 1 0 0-1 .5.5 0 0 0 0 1zm2 1a.5.5 0 1 0 0-1 .5.5 0 0 0 0 1zm-6 0a.5.5 0 1 0 0-1 .5.5 0 0 0 0 1z" fill="#FAD14E" mask="url(#d)"/><rect mask="url(#d)" width="21" height="15" rx="1.5"/></g></svg>
